svgs/light/users-gear.svg

<svg xmlns="http://www.w3.org/2000/svg" viewBox="0 0 640 512"><!--! Font Awesome Pro 6.0.0-alpha3 by @fontawesome - https://fontawesome.com License - https://fontawesome.com/license (Commercial License) --><path d="M319.9 320c57.41 0 103.1-46.56 103.1-104c0-57.44-46.54-104-103.1-104c-57.41 0-103.1 46.56-103.1 104C215.9 273.4 262.5 320 319.9 320zM319.9 144c39.68 0 71.96 32.3 71.96 72S359.5 288 319.9 288S247.9 255.7 247.9 216S280.2 144 319.9 144zM496 192c-10.8 0-21.38 2.342-31.47 6.971c-7.74 3.551-12.13 12.51-9.143 20.48c3.336 8.883 13.51 12.88 21.86 8.889C483.3 225.5 489.6 224 496 224h65.08c16.65 0 31.24 9.439 39.55 23.6C603.6 252.7 608.8 256 614.7 256c12.42 0 19.93-13.48 13.7-24.22C614.5 207.1 589.6 192 561.1 192H496zM512 160c44.18 0 80-35.82 80-80S556.2 0 512 0c-44.18 0-80 35.82-80 80S467.8 160 512 160zM512 32c26.47 0 48 21.53 48 48S538.5 128 512 128s-48-21.53-48-48S485.5 32 512 32zM624.5 397.2l-10.02-5.828c.3594-4.891 .3594-9.781 0-14.66l9.531-5.562c8.844-4.766 13.17-15.28 10.2-25.22c-5.672-18.02-15.44-34.89-28.08-48.55c-6.703-7.516-17.92-9.266-26.64-4.25l-9.984 5.766c-4.047-2.734-8.266-5.172-12.64-7.297V279.1c0-10.19-7.234-18.98-16.77-20.83c-18.61-4.188-38.11-4.156-55.88-.0938c-9.922 1.922-17.14 10.72-17.14 20.92v11.61c-4.375 2.125-8.609 4.562-12.66 7.297l-9.75-5.609c-8.547-5.156-19.73-3.578-26.75 3.859C405 311.1 395.3 328 389.7 346.1c-2.906 9.719 1.172 19.94 9.688 24.73l10.06 5.859c-.3281 4.859-.3281 9.734 0 14.59L399.9 396.9c-8.953 4.812-13.12 15.09-10.14 25.12c5.484 17.81 15.22 34.7 28.31 48.97c6.859 7.281 17.73 8.906 26.31 3.938l10.09-5.797c4.031 2.734 8.266 5.172 12.64 7.297v11.61c0 10.2 7.219 19 16.7 20.83C493.2 510.1 502.7 512 512.2 512c9.375 0 18.68-1.016 27.49-3.047c9.969-1.938 17.2-10.73 17.2-20.92v-11.59c4.375-2.125 8.594-4.562 12.64-7.297l9.688 5.594c8.812 5.281 20.11 3.578 26.75-3.859c12.83-13.88 22.59-30.75 28.33-48.98C637.2 412.2 632.9 401.7 624.5 397.2zM581.6 371.2c1.578 8.406 1.578 17.28 0 25.69l-2.094 11.11l21.38 12.44c-3.297 7.953-7.672 15.48-12.98 22.38l-21.28-12.3l-8.609 7.312c-6.688 5.688-14.22 10.05-22.39 12.92l-10.69 3.766v24.67c-8.438 1.094-17.09 1.094-25.78-.0313v-24.62l-10.67-3.781c-8.172-2.875-15.72-7.234-22.39-12.92l-8.578-7.297l-21.38 12.3c-5.359-6.938-9.75-14.52-12.97-22.41L444.3 408l-1.969-11c-1.516-8.5-1.516-17.5 0-26L444.3 360l-21.22-12.38c3.25-7.984 7.641-15.58 12.94-22.42l21.41 12.31l8.578-7.297c6.672-5.688 14.22-10.05 22.39-12.92l10.67-3.781V288.9c8.406-1.156 17.06-1.141 25.78 .0469v24.62l10.69 3.766c8.172 2.875 15.7 7.234 22.39 12.92l8.609 7.312l21.3-12.3c5.297 6.859 9.688 14.42 12.97 22.36l-21.38 12.45L581.6 371.2zM128 160c44.18 0 80-35.82 80-80S172.2 0 128 0C83.82 0 48 35.82 48 80S83.82 160 128 160zM128 32c26.47 0 48 21.53 48 48S154.5 128 128 128S80 106.5 80 80S101.5 32 128 32zM384 480H160.2c3.021-53.41 51.19-96 109.1-96H336c8.836 0 16-7.164 16-16c0-8.838-7.164-16-16-16H270.1C191.6 352 128 411.7 128 485.3C128 500.1 140.7 512 156.4 512H384c8.836 0 16-7.164 16-16C400 487.2 392.8 480 384 480zM512 336c-26.47 0-48 21.53-48 48s21.53 48 48 48s48-21.53 48-48S538.5 336 512 336zM512 400c-8.828 0-16-7.172-16-16s7.172-16 16-16s16 7.172 16 16S520.8 400 512 400zM162.8 228.3c7.938 3.797 17.53 .375 21.31-7.594c3.797-7.969 .3906-17.52-7.594-21.31C166.1 194.5 155.2 192 144 192H78.92C35.41 192 0 229.1 0 274.7V288c0 8.844 7.156 16 16 16S32 296.8 32 288V274.7C32 246.7 53.05 224 78.92 224H144C150.4 224 156.7 225.5 162.8 228.3z"/></svg>

<svg xmlns="http://www.w3.org/2000/svg" viewBox="0 0 640 512"><!-- Font Awesome Pro 6.0.0-alpha2 by @fontawesome - https://fontawesome.com License - https://fontawesome.com/license (Commercial License) --><path d="M319.859 320C377.273 320 423.814 273.436 423.814 216C423.814 158.562 377.273 112 319.859 112C262.451 112 215.904 158.562 215.904 216C215.904 273.436 262.451 320 319.859 320ZM319.859 144C359.535 144 391.814 176.299 391.814 216S359.535 288 319.859 288S247.904 255.701 247.904 216S280.184 144 319.859 144ZM496 192C485.201 192 474.621 194.342 464.529 198.971C456.789 202.521 452.395 211.482 455.387 219.455C458.723 228.338 468.895 232.34 477.25 228.344C483.328 225.469 489.625 224 496 224H561.078C577.727 224 592.316 233.439 600.631 247.602C603.6 252.66 608.789 256 614.654 256C627.072 256 634.584 242.521 628.35 231.783C614.523 207.963 589.588 192 561.078 192H496ZM512 160C556.184 160 592 124.182 592 80S556.184 0 512 0C467.82 0 432 35.818 432 80S467.82 160 512 160ZM512 32C538.467 32 560 53.533 560 80S538.467 128 512 128S464 106.467 464 80S485.533 32 512 32ZM624.516 397.156L614.5 391.328C614.859 386.438 614.859 381.547 614.5 376.672L624.031 371.109C632.875 366.344 637.203 355.828 634.234 345.891C628.563 327.875 618.797 311 606.156 297.344C599.453 289.828 588.234 288.078 579.516 293.094L569.531 298.859C565.484 296.125 561.266 293.688 556.891 291.563V279.969C556.891 269.781 549.656 260.984 540.125 259.141C521.516 254.953 502.016 254.984 484.25 259.047C474.328 260.969 467.109 269.766 467.109 279.969V291.578C462.734 293.703 458.5 296.141 454.453 298.875L444.703 293.266C436.156 288.109 424.969 289.687 417.953 297.125C405.031 311.109 395.281 328 389.719 346.109C386.812 355.828 390.891 366.047 399.406 370.844L409.469 376.703C409.141 381.563 409.141 386.438 409.469 391.297L399.891 396.891C390.937 401.703 386.766 411.984 389.75 422.016C395.234 439.828 404.969 456.719 418.062 470.984C424.922 478.266 435.797 479.891 444.375 474.922L454.469 469.125C458.5 471.859 462.734 474.297 467.109 476.422V488.031C467.109 498.234 474.328 507.031 483.812 508.859C493.188 510.953 502.766 512 512.234 512C521.609 512 530.875 510.984 539.688 508.953C549.656 507.016 556.891 498.219 556.891 488.031V476.438C561.266 474.313 565.484 471.875 569.531 469.141L579.219 474.734C588.031 480.016 599.328 478.313 605.969 470.875C618.797 457 628.563 440.125 634.297 421.891C637.203 412.172 632.875 401.656 624.516 397.156ZM581.562 371.156C583.141 379.562 583.141 388.438 581.562 396.844L579.469 407.953L600.844 420.391C597.547 428.344 593.172 435.875 587.859 442.766L566.578 430.469L557.969 437.781C551.281 443.469 543.75 447.828 535.578 450.703L524.891 454.469V479.141C516.453 480.234 507.797 480.234 499.109 479.109V454.484L488.437 450.703C480.266 447.828 472.719 443.469 466.047 437.781L457.469 430.484L436.094 442.781C430.734 435.844 426.344 428.266 423.125 420.375L444.344 408L442.375 397C440.859 388.5 440.859 379.5 442.375 371L444.344 360L423.125 347.625C426.375 339.641 430.766 332.047 436.063 325.203L457.469 337.516L466.047 330.219C472.719 324.531 480.266 320.172 488.438 317.297L499.109 313.516V288.859C507.516 287.703 516.172 287.719 524.891 288.906V313.531L535.578 317.297C543.75 320.172 551.281 324.531 557.969 330.219L566.578 337.531L587.875 325.234C593.172 332.094 597.563 339.656 600.844 347.594L579.469 360.047L581.562 371.156ZM128 160C172.184 160 208 124.182 208 80S172.184 0 128 0C83.82 0 48 35.818 48 80S83.82 160 128 160ZM128 32C154.467 32 176 53.533 176 80S154.467 128 128 128S80 106.467 80 80S101.533 32 128 32ZM384 480H160.15C163.172 426.592 211.338 384 270.113 384H336C344.836 384 352 376.836 352 368C352 359.162 344.836 352 336 352H270.113C191.631 352 128 411.693 128 485.332C128 500.059 140.727 512 156.422 512H384C392.836 512 400 504.836 400 496C400 487.162 392.836 480 384 480ZM512 336C485.531 336 464 357.531 464 384S485.531 432 512 432S560 410.469 560 384S538.469 336 512 336ZM512 400C503.172 400 496 392.828 496 384S503.172 368 512 368S528 375.172 528 384S520.828 400 512 400ZM162.75 228.344C170.688 232.141 180.281 228.719 184.062 220.75C187.859 212.781 184.453 203.234 176.469 199.438C166.078 194.5 155.156 192 144 192H78.922C35.406 192 0 229.094 0 274.672V288C0 296.844 7.156 304 16 304S32 296.844 32 288V274.672C32 246.734 53.047 224 78.922 224H144C150.375 224 156.672 225.469 162.75 228.344Z"/></svg>
